X:1
T:Title
%%score ( 1 2 ) { 3 | 4 }
L:1/8
Q:1/4=105
M:4/4
K:Ab
V:1 treble nm="Grand Piano, Soprano"
V:2 treble 
V:3 bass nm="Choir Pad, Bass"
V:4 bass 
V:1
 [CE]2 [A,C]>[CE] [CA]3 [CA] | [DA]2 [DG]2 z2 [DE]2 | [CE]2 [CA]2 [Fd]3 [Ec] | %3
w: By~Arranged~by~George~Frederick~Root,~1880 * * * *|||
 [Ec]2 [EB]2 z2 [CA]2 | [CE]3 [DF] [E_G]2 [EG]2 | [E_G]2 [DF]2 z2 [=DF]2 | %6
w: |||
 [=DF]3 [EG] [FA]2 [FA]2 |[M:3/4] [FA]2 [EG]2 z2 | [DE]2 [CE]4 | [CA]2 [Ec]4 | [EA]2 [FA]4 | %11
w: |||||
 [DF]2 [CE]4 | A2 [Gd]4 | [Ac]2 c2 B2 | [FA]2 [EA]4- | [EA]2 [EG]4- | [EG]2 [EA]4- | [EA]6 |] %18
w: |||||||
V:2
 x8 | x8 | x8 | x8 | x8 | x8 | x8 |[M:3/4] x6 | x6 | x6 | x6 | x6 | x6 | z2 F4 | x6 | x6 | x6 | %17
 x6 |] %18
V:3
 E,2 E,>E, E,3 E, | E,2 E,2 z2 G,2 | A,2 A,2 A,3 A, | A,2 G,2 z2 A,2 | A,3 A, A,2 A,2 | %5
 A,2 A,2 z2 B,2 | B,3 B, B,2 B,2 |[M:3/4] B,2 B,2 z2 | G,2 A,4 | A,2 A,4 | A,2 A,4 | A,2 A,4 | %12
 E2 E4 | E2 E2 D2 | B,2 C4- | C2 D4- | D2 C4- | C6 |] %18
V:4
 A,,2 A,,>A,, A,,3 A,, | B,,2 B,,2 z2 B,,2 | A,,2 F,2 D,3 A,, | E,2 E,2 z2 A,,2 | %4
 A,,3 A,, A,,2 C,2 | D,2 D,2 z2 B,,2 | B,,3 B,, B,,2 =D,2 |[M:3/4] E,2 E,2 z2 | E,2 A,,4 | %9
 A,,2 A,,4 | C,2 D,4 | F,2 z2 z2 | C2 B,4 | A,2 D,4 | D,2 E,4- | E,2 E,4- | E,2 A,,4- | A,,6 |] %18

